actions/22x22-dark/document-open-remote.svg

<svg xmlns="http://www.w3.org/2000/svg" viewBox="0 0 22 22">
 <defs id="defs3051">
   <style type="text/css" id="current-color-scheme">
     .ColorScheme-Text {
       color:#f2f2f2;
     }
     </style>
 </defs>
   <path
      style="fill:currentColor;fill-opacity:1;stroke:none"
      d="m3.4444444 4.5555556c-.2462222 0-.4444444.1982222-.4444444.4444444v1.7430556.9236111 8.9236103c0 .22729.1824405.409723.4097222.409723h15.1805548c.227282 0 .409723-.182433.409723-.409723v-9.8472214c0-.2272889-.182441-.4097223-.409723-.4097223h-7.272569c-.506546.0151111-.752287-.1166111-.975694-.3263889l-1.0555557-1.0763888c-.1493778-.1957334-.2624583-.375-.5086805-.375zm7.5555556 3.5555555c1.601861 0 3.120173.6476029 4.276042 1.8229169.217366.221031.225612.58704.01736.817708-.107226.118419-.249153.177084-.392361.177084-.135578 0-.272701-.0525-.378472-.159723-.951958-.968184-2.203132-1.5-3.52257-1.5-1.3219816 0-2.5731567.530855-3.5225694 1.498264-.2169967.221026-.5621942.213296-.7708324-.017361-.2086385-.230672-.199608-.596687.0173611-.817708 1.1536925-1.1749319 2.6709065-1.8211809 4.2760417-1.8211809zm0 1.9288199c1.160962 0 2.25347.476826 3.076389 1.345486.213728.225271.215673.592637.0035.819444-.106526.113024-.245504.170139-.385445.170139h-.0017c-.139213 0-.279282-.05616-.385416-.168403-.617228-.651499-1.436425-1.010417-2.307328-1.010417-.872718 0-1.691186.356993-2.3072916 1.006945-.213362.225269-.5585638.224696-.7708334-.0017-.2122571-.226482-.2121042-.592475.0017361-.817744.8214673-.86712 1.9136117-1.34375 3.0763889-1.34375zm0 1.927083c.716785 0 1.405176.324953 1.887153.888889.202457.236839.184962.601119-.03819.815972-.103956.100674-.23373.151041-.364583.151041-.148304 0-.296923-.0635-.404514-.189235-.275884-.323243-.670222-.508681-1.079866-.508681-.416549 0-.7997.179268-1.078125.505208-.2020945.237225-.5455542.255173-.7690972.03993-.2231783-.214851-.2406694-.579524-.0381945-.815971.4805223-.562784 1.1675437-.887153 1.8854167-.887153zm-.06771 1.928819c.363745 0 .659722.298713.659722.664931 0 .366221-.295977.661458-.659722.661458-.363749 0-.657986-.295237-.657986-.661458 0-.366218.294237-.664931.657986-.664931z"
      class="ColorScheme-Text" />
</svg>

<?xml version="1.0" encoding="UTF-8" standalone="no"?>
<svg
   xmlns:dc="http://purl.org/dc/elements/1.1/"
   xmlns:cc="http://creativecommons.org/ns#"
   xmlns:rdf="http://www.w3.org/1999/02/22-rdf-syntax-ns#"
   xmlns:svg="http://www.w3.org/2000/svg"
   xmlns="http://www.w3.org/2000/svg"
   xmlns:sodipodi="http://sodipodi.sourceforge.net/DTD/sodipodi-0.dtd"
   xmlns:inkscape="http://www.inkscape.org/namespaces/inkscape"
   viewBox="0 0 22 22"
   id="svg3197"
   version="1.1"
   inkscape:version="0.91 r13725"
   sodipodi:docname="document-open-remote.svg">
  <metadata
     id="metadata3204">
    <rdf:RDF>
      <cc:Work
         rdf:about="">
        <dc:format>image/svg+xml</dc:format>
        <dc:type
           rdf:resource="http://purl.org/dc/dcmitype/StillImage" />
      </cc:Work>
    </rdf:RDF>
  </metadata>
  <sodipodi:namedview
     pagecolor="#ffffff"
     bordercolor="#666666"
     borderopacity="1"
     objecttolerance="10"
     gridtolerance="10"
     guidetolerance="10"
     inkscape:pageopacity="0"
     inkscape:pageshadow="2"
     inkscape:window-width="640"
     inkscape:window-height="480"
     id="namedview3202"
     showgrid="false"
     inkscape:zoom="28.954545"
     inkscape:cx="4.8524333"
     inkscape:cy="11"
     inkscape:current-layer="svg3197" />
  <defs
     id="defs3051">
    <style
       type="text/css"
       id="current-color-scheme">
      .ColorScheme-Text {
        color:#f2f2f2
      }
      </style>
  </defs>
  <path
     style="color:#f2f2f2;fill:currentColor;fill-opacity:1;stroke:none"
     class="ColorScheme-Text"
     d="M 3.4444444,4.5555556 C 3.1982222,4.5555556 3,4.7537778 3,5 L 3,6.7430556 3,7.6666667 3,16.590277 C 3,16.817567 3.1824405,17 3.4097222,17 L 18.590277,17 C 18.817559,17 19,16.817567 19,16.590277 L 19,6.7430556 C 19,6.5157667 18.817559,6.3333333 18.590277,6.3333333 l -7.272569,0 C 10.811162,6.3484444 10.565421,6.2167222 10.342014,6.0069444 L 9.2864583,4.9305556 C 9.1370805,4.7348222 9.024,4.5555556 8.7777778,4.5555556 l -5.3333334,0 z M 11,8.1111111 c 1.601861,0 3.120173,0.6476029 4.276042,1.8229169 0.217366,0.221031 0.225612,0.58704 0.01736,0.817708 -0.107226,0.118419 -0.249153,0.177084 -0.392361,0.177084 -0.135578,0 -0.272701,-0.0525 -0.378472,-0.159723 -0.951958,-0.968184 -2.203132,-1.5 -3.52257,-1.5 -1.3219816,0 -2.5731567,0.530855 -3.5225694,1.498264 C 7.2604329,10.988387 6.9152354,10.980657 6.7065972,10.75 6.4979587,10.519328 6.5069892,10.153313 6.7239583,9.932292 7.8776508,8.7573601 9.3948648,8.1111111 11,8.1111111 Z m 0,1.9288199 c 1.160962,0 2.25347,0.476826 3.076389,1.345486 0.213728,0.225271 0.215673,0.592637 0.0035,0.819444 C 13.973363,12.317885 13.834385,12.375 13.694444,12.375 l -0.0017,0 c -0.139213,0 -0.279282,-0.05616 -0.385416,-0.168403 C 12.6901,11.555098 11.870903,11.19618 11,11.19618 c -0.872718,0 -1.691186,0.356993 -2.3072916,1.006945 -0.213362,0.225269 -0.5585638,0.224696 -0.7708334,-0.0017 C 7.7096179,11.974943 7.7097708,11.60895 7.9236111,11.383681 8.7450784,10.516561 9.8372228,10.039931 11,10.039931 Z m 0,1.927083 c 0.716785,0 1.405176,0.324953 1.887153,0.888889 0.202457,0.236839 0.184962,0.601119 -0.03819,0.815972 -0.103956,0.100674 -0.23373,0.151041 -0.364583,0.151041 -0.148304,0 -0.296923,-0.0635 -0.404514,-0.189235 C 11.803982,13.310438 11.409644,13.125 11,13.125 c -0.416549,0 -0.7997,0.179268 -1.078125,0.505208 -0.2020945,0.237225 -0.5455542,0.255173 -0.7690972,0.03993 C 8.9295995,13.455287 8.9121084,13.090614 9.1145833,12.854167 9.5951056,12.291383 10.282127,11.967014 11,11.967014 Z m -0.06771,1.928819 c 0.363745,0 0.659722,0.298713 0.659722,0.664931 0,0.366221 -0.295977,0.661458 -0.659722,0.661458 -0.363749,0 -0.657986,-0.295237 -0.657986,-0.661458 0,-0.366218 0.294237,-0.664931 0.657986,-0.664931 z"
     id="path8"
     inkscape:connector-curvature="0" />
</svg>
